public/icons/icon/checkbox-checked.svg

<svg width="30" height="30" viewBox="0 0 30 30" fill="none" xmlns="http://www.w3.org/2000/svg">
<path d="M3 3H27V27L3 27L3 3Z" stroke="black" stroke-width="2"/>
<path d="M22.9339 7.45369C23.5118 7.83148 23.6739 8.60615 23.2961 9.18396L14.7961 22.184C14.5958 22.4903 14.2712 22.6935 13.9082 22.7398C13.5451 22.7862 13.1799 22.6711 12.909 22.4248L7.40905 17.4248C6.89822 16.9604 6.86058 16.1699 7.32496 15.6591C7.78935 15.1482 8.57991 15.1106 9.09073 15.575L13.506 19.5888L21.2037 7.81584C21.5815 7.23803 22.3561 7.07589 22.9339 7.45369Z" fill="black"/>
</svg>

<svg xmlns="http://www.w3.org/2000/svg" width="30" height="30" fill="none"><path stroke="#000" stroke-width="2" d="M3 3h24v24H3V3Z"/><path fill="#000" d="M22.934 7.454a1.25 1.25 0 0 1 .362 1.73l-8.5 13a1.25 1.25 0 0 1-1.887.24l-5.5-5a1.25 1.25 0 1 1 1.682-1.849l4.415 4.014 7.698-11.773a1.25 1.25 0 0 1 1.73-.362Z"/></svg>
